Sources/FrostedUI/Resources/Icons.xcassets/shieldCheckmark16.imageset/shield-checkmark-16.svg

<svg width="16" height="16" viewBox="0 0 16 16" fill="none" xmlns="http://www.w3.org/2000/svg" data-fui-icon="true">
  <path
    d="M7.34082 1.26227C7.76849 1.11973 8.23151 1.11973 8.65918 1.26227L12.8252 2.65192C13.6758 2.93552 14.25 3.73178 14.25 4.62848V7.94196C14.2499 9.85036 13.4209 11.2597 12.2666 12.355C11.1405 13.4235 9.67397 14.2214 8.35645 14.9322C8.13426 15.052 7.86574 15.052 7.64355 14.9322C6.32603 14.2214 4.85948 13.4235 3.7334 12.355C2.57908 11.2597 1.7501 9.85036 1.75 7.94196V4.62848C1.75 3.73179 2.32415 2.93552 3.1748 2.65192L7.34082 1.26227ZM8.18457 2.6861C8.06477 2.64617 7.93523 2.64617 7.81543 2.6861L3.64844 4.07477C3.41053 4.15432 3.25 4.37758 3.25 4.62848V7.94196C3.25009 9.34811 3.83776 10.3858 4.7666 11.2672C5.63865 12.0944 6.78354 12.754 8 13.4156C9.21646 12.754 10.3614 12.0944 11.2334 11.2672C12.1622 10.3858 12.7499 9.34811 12.75 7.94196V4.62848C12.75 4.37759 12.5894 4.15432 12.3516 4.07477L8.18457 2.6861ZM9.30273 5.80328C9.59555 5.51047 10.0704 5.51063 10.3633 5.80328C10.656 6.09619 10.6561 6.57099 10.3633 6.86383L7.86328 9.36383C7.57042 9.65641 7.09555 9.65647 6.80273 9.36383L5.63672 8.19781C5.34388 7.90498 5.34399 7.4292 5.63672 7.13629C5.92962 6.84381 6.4045 6.84359 6.69727 7.13629L7.33301 7.77203L9.30273 5.80328Z"
    fill="currentColor"
  />
</svg>

<svg xmlns="http://www.w3.org/2000/svg" width="16" height="16" fill="none" data-fui-icon="true" viewBox="0 0 16 16"><path fill="currentColor" d="M7.34 1.262c.428-.142.892-.142 1.32 0l4.165 1.39a2.08 2.08 0 0 1 1.425 1.976v3.314c0 1.908-.83 3.318-1.983 4.413-1.126 1.069-2.593 1.866-3.91 2.577a.75.75 0 0 1-.713 0c-1.318-.71-2.785-1.508-3.91-2.577C2.578 11.26 1.75 9.85 1.75 7.942V4.628c0-.896.574-1.692 1.425-1.976zm.845 1.424a.6.6 0 0 0-.37 0L3.648 4.075a.58.58 0 0 0-.398.553v3.314c0 1.406.588 2.444 1.517 3.325.872.827 2.017 1.487 3.233 2.149 1.216-.662 2.361-1.322 3.233-2.149.93-.881 1.517-1.919 1.517-3.325V4.628c0-.25-.16-.474-.398-.553zm1.118 3.117a.75.75 0 0 1 1.06 1.06l-2.5 2.5a.75.75 0 0 1-1.06 0L5.637 8.199a.751.751 0 0 1 1.06-1.062l.636.636z"/></svg>
